X:1
T: Jockey has Gotten a Wife
N:
C:
S:
A:
O:
R:
M:9/8
K:Am
I:speed 165
%W: A1
% voice 1 (1 lines, 34 notes)
K:Am
M:9/8
L:1/16
B2 |c2 B2 A2 A2 E2 ^G2 A4 B2 c2 B2 A2 c2 d2 e2 d2 B2 ^G2 c2 B2 A2 A2 E2 ^G2 A4 A2 G2 A2 G2 g4 e2 d2 B2 G2 |
%W: A2
% voice 1 (1 lines, 33 notes)
c2 B2 A2 A2 E2 ^G2 A4 B2 c2 B2 A2 c2 d2 e2 d2 B2 ^G2 c2 B2 A2 A2 E2 ^G2 A4 A2 G2 A2 G2 g4 e2 d2 B2 G2 |
%W: B1
% voice 1 (1 lines, 32 notes)
a4 a2 a2 e2 a2 a4 b2 c'2 b2 a2 a2 b2 c'2 b2 a2 ^g2 c'2 b2 a2 b2 a2 ^g2 a4 A2 c2 d2 c2 g4 e2 d2 B2 G2 |
%W: B2                                                                              Finale
% voice 1 (1 lines, 33 notes)
a4 a2 a2 e2 a2 a4 b2 c'2 b2 a2 a2 b2 c'2 b2 a2 ^g2 c'2 b2 a2 b2 a2 ^g2 a4 A2 c2 d2 c2 g4 e2 d2 B2 G2 ||A12 ||
